communes/3881.svg

<?xml version="1.0" encoding="UTF-8"?>
<!DOCTYPE svg  PUBLIC '-//W3C//DTD SVG 1.1//EN'  'http://www.w3.org/Graphics/SVG/1.1/DTD/svg11.dtd'>
<svg width="438" height="480" viewBox="21 15 438 480" xmlns="http://www.w3.org/2000/svg" xmlns:xlink="http://www.w3.org/1999/xlink">
<metadata>xmlns:rdf="http://www.w3.org/1999/02/22-rdf-syntax-ns#"
         xmlns:dc="http://purl.org/dc/elements/1.1/"&gt;
 dc:title="Wappen Conters im Prä´´igau (CH-GR)"
 dc:date="2006-11-03"
 dc:format="image/svg+xml"
 dc:language="de"&gt;
 dc:creator="http://de.wikipedia.org/wiki/Benutzer:Bernina"</metadata>
<title>Wappen Conters im Prä´´igau (CH-GR)</title>
<defs>
<path id="b" d="m3780 4230c30 90 60 180 120 300s150 270 195 420 45 300-15 450-180 300-270 390-150 120-180 165-30 105-15 150 45 75 105 105 150 60 195 60 45-30 75-45 90-15 120-30 30-45 30-90 0-105 30-210 90-255 150-360 120-165 150-210 30-75 15-105-45-60-60-135-15-195 45-300 180-195 233-310.67c53-115.66 39-257 25-398.33"/>
<path id="a" d="m2250 1530c-30-30-60-60-45-105s75-105 75-135-60-30-75-60 15-90 0-120-75-30-120-60-75-90-75-135 30-75 60-90 60-15 165-15 285 0 390 30 135 90 210 135 195 75 300 75 195-30 240-30 45 30 30 75-45 105-90 150-105 75-165 75-120-30-150 105-30 435-30 645 0 330 75 405 225 105 435 105 480-30 750-45 540-15 765 45 405 180 495 255 90 105 90 135 0 60 30 60 90-30 195 0 255 120 330 375 75 675 105 870 90 165 120 210 30 165 15 240-45 105-90 120-105 15-180-15-165-90-225-225-90-345-90-525 30-330 30-450-30-210-90-255-150-45-180-30 0 45 0 165-30 330-75 570-105 510-120 660 15 180 60 210 105 60 120 150-15 240-15 405 30 345 15 450-75 135-90 180 15 105 0 150-75 75-135 90-120 15-180 0-120-45-150-75-30-60 15-120 135-150 180-285 45-315 15-465-90-270-195-435-255-375-405-510-300-195-480-195-390 60-585 60-375-60-435 0 0 240-30 345-150 135-195 240-15 285-15 375-30 90-45 135-15 135 15 225 90 180 105 255-15 135-30 195-15 120-45 165-90 75-150 90-120 15-180 0-120-45-135-75 15-60 60-180 105-330 105-480-60-240-75-345 15-225 0-300-75-105-105-150-30-105-45-180-45-165-90-240-105-135-150-180l-105-105c0-90 0-180-15-270s-45-180-75-315-60-315-75-510-15-405 15-585 90-330 120-412c30-83 30-98 30-113"/>
<clipPath id="c">
<path d="m360 4140a3240 3240 0 0 0 6480 0v-3870h-6480v3870z"/>
</clipPath>
<style type="text/css"><![CDATA[
  .Rand2 { stroke: #202020; stroke-width:30; }
  .Rand4 { stroke: #202020; stroke-width:60; }
  .Rand6 { stroke: #202020; stroke-width:90; }
  .Blau { fill: #0000ff; }
  .Gold { fill: #ffef00; }
  .Silber { fill: #ffffff; }
  ]]></style>
</defs>
<g transform="scale(.066667)" fill="none" fill-rule="evenodd" stroke-miterlimit="10" stroke-width="10">
<g clip-path="url(#c)">
<path class="Blau" d="m-225-225v7650h7650v-7650h-7650z"/>
<path class="Gold Rand2" d="m1620 5760c0 60 0 120 15 165s45 75 90 105 105 60 150 60 75-30 90-105 15-195 0-270-45-105-90-135-105-60-165-90"/>
<path class="Gold Rand2" d="m2520 6210c-60 30-120 60-165 120s-75 150-75 195 30 45 75 60 105 45 195 45 210-30 270-75 60-105 45-150-45-75-75-105"/>
<path class="Gold Rand2" d="m3690 6030c-30 30-60 60-105 135s-105 195-105 270 60 105 150 105 210-30 285-75 105-105 120-165 15-120 15-180"/>
<path class="Gold Rand2" d="m5040 6210c-60 60-120 120-165 180s-75 120-45 165 120 75 225 75 225-30 285-60 60-60 45-105-45-105-75-165"/>
<path class="Silber Rand2" d="m2250 900c-60-30-120-60-255-15s-345 165-495 270-240 195-285 270-45 135-30 165 45 30 105 30 150 0 177 5-9 15-61 27.33c-52 12.34-120 27-142.67 48-22.66 21 0 48.34 32.67 77 32.67 28.67 75.33 58.67 131 47.67s124.33-63 188.67-44c64.33 19 124.33 109 214.33 139s210 0 285-45 105-105 135-135 60-30 90-45 60-45 90-75"/>
<use class="Rand4" xlink:href="#b"/>
<use class="Rand4" xlink:href="#a"/>
<circle class="Silber Rand2" cx="2442" cy="834" r="128"/>
<circle class="Silber Rand2" cx="2712" cy="932" r="128"/>
<circle class="Silber Rand2" cx="1924" cy="2260" r="128"/>
<circle class="Silber Rand2" cx="1872" cy="2522" r="128"/>
<circle class="Silber Rand2" cx="1856" cy="2778" r="128"/>
<circle class="Silber Rand2" cx="1834" cy="3054" r="128"/>
<circle class="Silber Rand2" cx="1872" cy="3324" r="128"/>
<circle class="Silber Rand2" cx="1932" cy="3618" r="128"/>
<circle class="Silber Rand2" cx="2030" cy="3856" r="128"/>
<circle class="Silber Rand2" cx="2944" cy="1892" r="128"/>
<circle class="Silber Rand2" cx="2922" cy="2148" r="128"/>
<circle class="Silber Rand2" cx="2944" cy="2388" r="128"/>
<circle class="Silber Rand2" cx="3162" cy="2628" r="180"/>
<circle class="Silber Rand2" cx="3484" cy="2694" r="180"/>
<circle class="Silber Rand2" cx="3814" cy="2688" r="180"/>
<circle class="Silber Rand2" cx="4084" cy="2650" r="180"/>
<circle class="Silber Rand2" cx="4414" cy="2628" r="180"/>
<circle class="Silber Rand2" cx="4706" cy="2634" r="180"/>
<circle class="Silber Rand2" cx="4984" cy="2688" r="180"/>
<circle class="Silber Rand2" cx="5224" cy="2720" r="128"/>
<circle class="Silber Rand2" cx="5420" cy="2864" r="128"/>
<circle class="Silber Rand2" cx="2944" cy="4752" r="128"/>
<circle class="Silber Rand2" cx="3008" cy="4474" r="128"/>
<circle class="Silber Rand2" cx="3306" cy="4234" r="180"/>
<circle class="Silber Rand2" cx="3656" cy="4238" r="180"/>
<circle class="Silber Rand2" cx="3986" cy="4162" r="180"/>
<circle class="Silber Rand2" cx="3996" cy="4554" r="180"/>
<circle class="Silber Rand2" cx="4118" cy="4862" r="128"/>
<circle class="Silber Rand2" cx="4646" cy="4418" r="180"/>
<circle class="Silber Rand2" cx="4878" cy="4680" r="180"/>
<circle class="Silber Rand2" cx="5052" cy="4942" r="180"/>
<circle class="Silber Rand2" cx="5322" cy="4550" r="128"/>
<circle class="Silber Rand2" cx="5366" cy="4280" r="128"/>
<circle class="Silber Rand2" cx="5420" cy="4018" r="128"/>
<circle class="Silber Rand2" cx="5450" cy="3748" r="128"/>
<circle class="Silber Rand2" cx="5478" cy="3498" r="128"/>
<circle class="Silber Rand2" cx="5742" cy="3098" r="128"/>
<circle class="Silber Rand2" cx="5966" cy="3202" r="128"/>
<circle class="Silber Rand2" cx="6080" cy="3448" r="128"/>
<circle class="Silber Rand2" cx="6124" cy="3704" r="128"/>
<circle class="Silber Rand2" cx="6140" cy="3982" r="128"/>
<circle class="Silber Rand2" cx="6176" cy="4258" r="128"/>
<circle class="Silber Rand2" cx="5906" cy="4416" r="128"/>
<circle class="Silber Rand2" cx="5960" cy="4626" r="128"/>
<circle class="Silber Rand2" cx="6102" cy="4776" r="128"/>
<circle class="Silber Rand2" cx="6290" cy="4768" r="128"/>
<circle class="Silber Rand2" cx="6334" cy="4528" r="128"/>
<use class="Silber" xlink:href="#b"/>
<use class="Silber" xlink:href="#a"/>
<path class="Silber Rand2" d="m2070 4140v-30c0-30 0-90-30-120s-90-30-120-60-30-90-45-120-45-30-60 0-15 90-75 165-180 165-270 225-150 90-195 195-75 285-60 435 75 270 105 390 30 240 60 315 90 105 120 150 30 105 45 150 45 75 90 45 105-120 135-195 30-135 45-165 45-30 60-45 15-45-15-75-90-60-150-105-120-105-165-195-75-210-45-315 120-195 210-255 180-90 225-90 45 30 75 45 90 15 135-15 75-90 105-150"/>
<path class="Rand2" d="m1710 1260c30-30 60-60 105-60s105 30 150 45 75 15 105 15"/>
<path class="Rand2" d="m1818 1206c5.33 38 10.67 76 27 97.33 16.33 21.34 43.67 26 68 16s45.67-34.66 67-59.33"/>
<path class="Rand2" d="m1404 1427c-20 15-40 30-59.33 33.17-19.34 3.16-38-5.5-56.67-14.17"/>
<path class="Silber Rand2" d="m2790 1260c180 90 360 180 450 240s90 90 45 135-135 105-210 120-135-15-210-60-165-105-210-150-45-75-45-105"/>
<path class="Rand2" d="m4680 4590c-60-60-120-120-180-135s-120 15-165 0-75-75-120-105-105-30-165-30-120 0-165-15-75-45-105-75"/>
<path class="Rand2" d="m1877 937c-40.67 17.67-81.33 35.33-154.17 74.17-72.83 38.83-177.83 98.83-274.83 173.83-98 75-188 165-233 240s-45 135-30 165 45 30 105 30 150 0 177 5-9 15-61 27.33c-52 12.34-120 27-142.67 48-22.66 21 0 48.34 32.67 77 32.67 28.67 75.33 58.67 131 47.67s124.33-63 188.67-44c64.33 19 124.33 109 214.33 139s210 0 285-45 105-105 135-135 60-30 90-45 60-45 90-75"/>
</g>
<path class="Rand6" d="m360 4140a3240 3240 0 0 0 6480 0v-3870h-6480v3870z"/>
</g>
</svg>

<?xml version="1.0" encoding="iso-8859-1"?>
<!DOCTYPE svg PUBLIC "-//W3C//DTD SVG 1.1//EN" "http://www.w3.org/Graphics/SVG/1.1/DTD/svg11.dtd">
<!-- Auto-generated by fig2svg tool
     Date: Fri Nov  3 17:41:24 2006 -->
<svg xmlns="http://www.w3.org/2000/svg"
    xmlns:xlink="http://www.w3.org/1999/xlink"
     width="438" height="480" viewBox="21 15 438 480">
<metadata>
 xmlns:rdf="http://www.w3.org/1999/02/22-rdf-syntax-ns#"
         xmlns:dc="http://purl.org/dc/elements/1.1/">
 dc:title="Wappen Conters im Pr䴴igau (CH-GR)"
 dc:date="2006-11-03"
 dc:format="image/svg+xml"
 dc:language="de">
 dc:creator="http://de.wikipedia.org/wiki/Benutzer:Bernina" 
</metadata>
<title>
Wappen Conters im Pr䴴igau (CH-GR)
</title>
<defs>
<path id="lamm2-1"
      d="M3780,4230 C3810,4320 3840,4410 3900,4530
         C3960,4650 4050,4800 4095,4950 C4140,5100 4140,5250 4080,5400
         C4020,5550 3900,5700 3810,5790 C3720,5880 3660,5910 3630,5955
         C3600,6000 3600,6060 3615,6105 C3630,6150 3660,6180 3720,6210
         C3780,6240 3870,6270 3915,6270 C3960,6270 3960,6240 3990,6225
         C4020,6210 4080,6210 4110,6195 C4140,6180 4140,6150 4140,6105
         C4140,6060 4140,6000 4170,5895 C4200,5790 4260,5640 4320,5535
         C4380,5430 4440,5370 4470,5325 C4500,5280 4500,5250 4485,5220
         C4470,5190 4440,5160 4425,5085 C4410,5010 4410,4890 4470,4785
         C4530,4680 4650,4590 4703,4474.33 C4756,4358.67 4742,4217.33 4728,4076" />
<path id="lamm3-1"
      d="M2250,1530 C2220,1500 2190,1470 2205,1425
         C2220,1380 2280,1320 2280,1290 C2280,1260 2220,1260 2205,1230
         C2190,1200 2220,1140 2205,1110 C2190,1080 2130,1080 2085,1050
         C2040,1020 2010,960 2010,915 C2010,870 2040,840 2070,825
         C2100,810 2130,810 2235,810 C2340,810 2520,810 2625,840
         C2730,870 2760,930 2835,975 C2910,1020 3030,1050 3135,1050
         C3240,1050 3330,1020 3375,1020 C3420,1020 3420,1050 3405,1095
         C3390,1140 3360,1200 3315,1245 C3270,1290 3210,1320 3150,1320
         C3090,1320 3030,1290 3000,1425 C2970,1560 2970,1860 2970,2070
         C2970,2280 2970,2400 3045,2475 C3120,2550 3270,2580 3480,2580
         C3690,2580 3960,2550 4230,2535 C4500,2520 4770,2520 4995,2580
         C5220,2640 5400,2760 5490,2835 C5580,2910 5580,2940 5580,2970
         C5580,3000 5580,3030 5610,3030 C5640,3030 5700,3000 5805,3030
         C5910,3060 6060,3150 6135,3405 C6210,3660 6210,4080 6240,4275
         C6270,4470 6330,4440 6360,4485 C6390,4530 6390,4650 6375,4725
         C6360,4800 6330,4830 6285,4845 C6240,4860 6180,4860 6105,4830
         C6030,4800 5940,4740 5880,4605 C5820,4470 5790,4260 5790,4080
         C5790,3900 5820,3750 5820,3630 C5820,3510 5790,3420 5730,3375
         C5670,3330 5580,3330 5550,3345 C5520,3360 5550,3390 5550,3510
         C5550,3630 5520,3840 5475,4080 C5430,4320 5370,4590 5355,4740
         C5340,4890 5370,4920 5415,4950 C5460,4980 5520,5010 5535,5100
         C5550,5190 5520,5340 5520,5505 C5520,5670 5550,5850 5535,5955
         C5520,6060 5460,6090 5445,6135 C5430,6180 5460,6240 5445,6285
         C5430,6330 5370,6360 5310,6375 C5250,6390 5190,6390 5130,6375
         C5070,6360 5010,6330 4980,6300 C4950,6270 4950,6240 4995,6180
         C5040,6120 5130,6030 5175,5895 C5220,5760 5220,5580 5190,5430
         C5160,5280 5100,5160 4995,4995 C4890,4830 4740,4620 4590,4485
         C4440,4350 4290,4290 4110,4290 C3930,4290 3720,4350 3525,4350
         C3330,4350 3150,4290 3090,4350 C3030,4410 3090,4590 3060,4695
         C3030,4800 2910,4830 2865,4935 C2820,5040 2850,5220 2850,5310
         C2850,5400 2820,5400 2805,5445 C2790,5490 2790,5580 2820,5670
         C2850,5760 2910,5850 2925,5925 C2940,6000 2910,6060 2895,6120
         C2880,6180 2880,6240 2850,6285 C2820,6330 2760,6360 2700,6375
         C2640,6390 2580,6390 2520,6375 C2460,6360 2400,6330 2385,6300
         C2370,6270 2400,6240 2445,6120 C2490,6000 2550,5790 2550,5640
         C2550,5490 2490,5400 2475,5295 C2460,5190 2490,5070 2475,4995
         C2460,4920 2400,4890 2370,4845 C2340,4800 2340,4740 2325,4665
         C2310,4590 2280,4500 2235,4425 C2190,4350 2130,4290 2085,4245
         C2040,4200 2010,4170 1980,4140 C1980,4050 1980,3960 1965,3870
         C1950,3780 1920,3690 1890,3555 C1860,3420 1830,3240 1815,3045
         C1800,2850 1800,2640 1830,2460 C1860,2280 1920,2130 1950,2048
         C1980,1965 1980,1950 1980,1935" />
<clipPath id="clippath">
<path d="M360,4140 A3240,3240 0.0 0 0 6840,4140 L6840,270 L360,270 L360,4140 Z" />
</clipPath>
<style type="text/css">
  <![CDATA[
  .Rand2 { stroke: #202020; stroke-width:30; }
  .Rand4 { stroke: #202020; stroke-width:60; }
  .Rand6 { stroke: #202020; stroke-width:90; }
  .Blau { fill: #0000ff; }
  .Gold { fill: #ffef00; }
  .Silber { fill: #ffffff; }
  ]]>
</style>
</defs>
<g stroke="none" stroke-miterlimit="10" stroke-width="10"
   stroke-linecap="butt" stroke-linejoin="miter"
   fill="none" fill-rule="evenodd" transform="scale(0.066667)">
<g clip-path="url(#clippath)">
<path id="feld-1" class="Blau"
      d="M-225,-225 L-225,7425 L7425,7425 L7425,-225 L-225,-225 Z" />
<path id="huf-1" class="Gold Rand2"
      d="M1620,5760 C1620,5820 1620,5880 1635,5925
         C1650,5970 1680,6000 1725,6030 C1770,6060 1830,6090 1875,6090
         C1920,6090 1950,6060 1965,5985 C1980,5910 1980,5790 1965,5715
         C1950,5640 1920,5610 1875,5580 C1830,5550 1770,5520 1710,5490" />
<path id="huf-2" class="Gold Rand2"
      d="M2520,6210 C2460,6240 2400,6270 2355,6330
         C2310,6390 2280,6480 2280,6525 C2280,6570 2310,6570 2355,6585
         C2400,6600 2460,6630 2550,6630 C2640,6630 2760,6600 2820,6555
         C2880,6510 2880,6450 2865,6405 C2850,6360 2820,6330 2790,6300" />
<path id="huf-3" class="Gold Rand2"
      d="M3690,6030 C3660,6060 3630,6090 3585,6165
         C3540,6240 3480,6360 3480,6435 C3480,6510 3540,6540 3630,6540
         C3720,6540 3840,6510 3915,6465 C3990,6420 4020,6360 4035,6300
         C4050,6240 4050,6180 4050,6120" />
<path id="huf-4" class="Gold Rand2"
      d="M5040,6210 C4980,6270 4920,6330 4875,6390
         C4830,6450 4800,6510 4830,6555 C4860,6600 4950,6630 5055,6630
         C5160,6630 5280,6600 5340,6570 C5400,6540 5400,6510 5385,6465
         C5370,6420 5340,6360 5310,6300" />
<path id="lamm1-1" class="Silber Rand2"
      d="M2250,900 C2190,870 2130,840 1995,885 C1860,930 1650,1050 1500,1155
         C1350,1260 1260,1350 1215,1425 C1170,1500 1170,1560 1185,1590
         C1200,1620 1230,1620 1290,1620 C1350,1620 1440,1620 1467,1625
         C1494,1630 1458,1640 1406,1652.33
         C1354,1664.67 1286,1679.33 1263.33,1700.33
         C1240.67,1721.33 1263.33,1748.67 1296,1777.33
         C1328.67,1806 1371.33,1836 1427,1825
         C1482.67,1814 1551.33,1762 1615.67,1781
         C1680,1800 1740,1890 1830,1920 C1920,1950 2040,1920 2115,1875
         C2190,1830 2220,1770 2250,1740 C2280,1710 2310,1710 2340,1695
         C2370,1680 2400,1650 2430,1620" />
<use class="Rand4" xlink:href="#lamm2-1" />
<use class="Rand4" xlink:href="#lamm3-1" />
<circle id="wolle-1" class="Silber Rand2" cx="2442" cy="834" r="128" />
<circle id="wolle-2" class="Silber Rand2" cx="2712" cy="932" r="128" />
<circle id="wolle-3" class="Silber Rand2" cx="1924" cy="2260" r="128" />
<circle id="wolle-4" class="Silber Rand2" cx="1872" cy="2522" r="128" />
<circle id="wolle-5" class="Silber Rand2" cx="1856" cy="2778" r="128" />
<circle id="wolle-6" class="Silber Rand2" cx="1834" cy="3054" r="128" />
<circle id="wolle-7" class="Silber Rand2" cx="1872" cy="3324" r="128" />
<circle id="wolle-8" class="Silber Rand2" cx="1932" cy="3618" r="128" />
<circle id="wolle-9" class="Silber Rand2" cx="2030" cy="3856" r="128" />
<circle id="wolle-10" class="Silber Rand2" cx="2944" cy="1892" r="128" />
<circle id="wolle-11" class="Silber Rand2" cx="2922" cy="2148" r="128" />
<circle id="wolle-12" class="Silber Rand2" cx="2944" cy="2388" r="128" />
<circle id="wolle-13" class="Silber Rand2" cx="3162" cy="2628" r="180" />
<circle id="wolle-14" class="Silber Rand2" cx="3484" cy="2694" r="180" />
<circle id="wolle-15" class="Silber Rand2" cx="3814" cy="2688" r="180" />
<circle id="wolle-16" class="Silber Rand2" cx="4084" cy="2650" r="180" />
<circle id="wolle-17" class="Silber Rand2" cx="4414" cy="2628" r="180" />
<circle id="wolle-18" class="Silber Rand2" cx="4706" cy="2634" r="180" />
<circle id="wolle-19" class="Silber Rand2" cx="4984" cy="2688" r="180" />
<circle id="wolle-20" class="Silber Rand2" cx="5224" cy="2720" r="128" />
<circle id="wolle-21" class="Silber Rand2" cx="5420" cy="2864" r="128" />
<circle id="wolle-22" class="Silber Rand2" cx="2944" cy="4752" r="128" />
<circle id="wolle-23" class="Silber Rand2" cx="3008" cy="4474" r="128" />
<circle id="wolle-24" class="Silber Rand2" cx="3306" cy="4234" r="180" />
<circle id="wolle-25" class="Silber Rand2" cx="3656" cy="4238" r="180" />
<circle id="wolle-26" class="Silber Rand2" cx="3986" cy="4162" r="180" />
<circle id="wolle-27" class="Silber Rand2" cx="3996" cy="4554" r="180" />
<circle id="wolle-28" class="Silber Rand2" cx="4118" cy="4862" r="128" />
<circle id="wolle-29" class="Silber Rand2" cx="4646" cy="4418" r="180" />
<circle id="wolle-30" class="Silber Rand2" cx="4878" cy="4680" r="180" />
<circle id="wolle-31" class="Silber Rand2" cx="5052" cy="4942" r="180" />
<circle id="wolle-32" class="Silber Rand2" cx="5322" cy="4550" r="128" />
<circle id="wolle-33" class="Silber Rand2" cx="5366" cy="4280" r="128" />
<circle id="wolle-34" class="Silber Rand2" cx="5420" cy="4018" r="128" />
<circle id="wolle-35" class="Silber Rand2" cx="5450" cy="3748" r="128" />
<circle id="wolle-36" class="Silber Rand2" cx="5478" cy="3498" r="128" />
<circle id="wolle-37" class="Silber Rand2" cx="5742" cy="3098" r="128" />
<circle id="wolle-38" class="Silber Rand2" cx="5966" cy="3202" r="128" />
<circle id="wolle-39" class="Silber Rand2" cx="6080" cy="3448" r="128" />
<circle id="wolle-40" class="Silber Rand2" cx="6124" cy="3704" r="128" />
<circle id="wolle-41" class="Silber Rand2" cx="6140" cy="3982" r="128" />
<circle id="wolle-42" class="Silber Rand2" cx="6176" cy="4258" r="128" />
<circle id="wolle-43" class="Silber Rand2" cx="5906" cy="4416" r="128" />
<circle id="wolle-44" class="Silber Rand2" cx="5960" cy="4626" r="128" />
<circle id="wolle-45" class="Silber Rand2" cx="6102" cy="4776" r="128" />
<circle id="wolle-46" class="Silber Rand2" cx="6290" cy="4768" r="128" />
<circle id="wolle-47" class="Silber Rand2" cx="6334" cy="4528" r="128" />
<use class="Silber" xlink:href="#lamm2-1" />
<use class="Silber" xlink:href="#lamm3-1" />
<path id="lamm4-1" class="Silber Rand2"
      d="M2070,4140 C2070,4140 2070,4140 2070,4110
         C2070,4080 2070,4020 2040,3990 C2010,3960 1950,3960 1920,3930
         C1890,3900 1890,3840 1875,3810 C1860,3780 1830,3780 1815,3810
         C1800,3840 1800,3900 1740,3975 C1680,4050 1560,4140 1470,4200
         C1380,4260 1320,4290 1275,4395 C1230,4500 1200,4680 1215,4830
         C1230,4980 1290,5100 1320,5220 C1350,5340 1350,5460 1380,5535
         C1410,5610 1470,5640 1500,5685 C1530,5730 1530,5790 1545,5835
         C1560,5880 1590,5910 1635,5880 C1680,5850 1740,5760 1770,5685
         C1800,5610 1800,5550 1815,5520 C1830,5490 1860,5490 1875,5475
         C1890,5460 1890,5430 1860,5400 C1830,5370 1770,5340 1710,5295
         C1650,5250 1590,5190 1545,5100 C1500,5010 1470,4890 1500,4785
         C1530,4680 1620,4590 1710,4530 C1800,4470 1890,4440 1935,4440
         C1980,4440 1980,4470 2010,4485 C2040,4500 2100,4500 2145,4470
         C2190,4440 2220,4380 2250,4320" />
<path id="llinie-1" class="Rand2"
      d="M1710,1260 C1740,1230 1770,1200 1815,1200
         C1860,1200 1920,1230 1965,1245 C2010,1260 2040,1260 2070,1260" />
<path id="llinie-2" class="Rand2"
      d="M1818,1206 C1823.33,1244 1828.67,1282 1845,1303.33
         C1861.33,1324.67 1888.67,1329.33 1913,1319.33
         C1937.33,1309.33 1958.67,1284.67 1980,1260" />
<path id="llinie-3" class="Rand2"
      d="M1404,1427 C1384,1442 1364,1457 1344.67,1460.17
         C1325.33,1463.33 1306.67,1454.67 1288,1446" />
<path id="lamm5-1" class="Silber Rand2"
      d="M2790,1260 C2970,1350 3150,1440 3240,1500
         C3330,1560 3330,1590 3285,1635 C3240,1680 3150,1740 3075,1755
         C3000,1770 2940,1740 2865,1695 C2790,1650 2700,1590 2655,1545
         C2610,1500 2610,1470 2610,1440" />
<path id="llinie2-1" class="Rand2"
      d="M4680,4590 C4620,4530 4560,4470 4500,4455
         C4440,4440 4380,4470 4335,4455 C4290,4440 4260,4380 4215,4350
         C4170,4320 4110,4320 4050,4320 C3990,4320 3930,4320 3885,4305
         C3840,4290 3810,4260 3780,4230" />
<path id="llinie2-2" class="Rand2"
      d="M1877,937 C1836.33,954.67 1795.67,972.33 1722.83,1011.17
         C1650,1050 1545,1110 1448,1185 C1350,1260 1260,1350 1215,1425
         C1170,1500 1170,1560 1185,1590 C1200,1620 1230,1620 1290,1620
         C1350,1620 1440,1620 1467,1625 C1494,1630 1458,1640 1406,1652.33
         C1354,1664.67 1286,1679.33 1263.33,1700.33
         C1240.67,1721.33 1263.33,1748.67 1296,1777.33
         C1328.67,1806 1371.33,1836 1427,1825
         C1482.67,1814 1551.33,1762 1615.67,1781
         C1680,1800 1740,1890 1830,1920 C1920,1950 2040,1920 2115,1875
         C2190,1830 2220,1770 2250,1740 C2280,1710 2310,1710 2340,1695
         C2370,1680 2400,1650 2430,1620" />
</g>
<path id="clip-boundary" class="Rand6"
      d="M360,4140 A3240,3240 0.0 0 0 6840,4140 L6840,270 L360,270 L360,4140 Z" />
</g>
</svg>
